images-source/features/approve.svg

<?xml version="1.0" encoding="UTF-8"?>
<svg width="55px" height="62px" viewBox="0 0 55 62" version="1.1" xmlns="http://www.w3.org/2000/svg" xmlns:xlink="http://www.w3.org/1999/xlink">
    <!-- Generator: Sketch 48.2 (47327) - http://www.bohemiancoding.com/sketch -->
    <title>approve</title>
    <desc>Created with Sketch.</desc>
    <defs></defs>
    <g id="platform" stroke="none" stroke-width="1" fill="none" fill-rule="evenodd" transform="translate(-1231.000000, -2648.000000)">
        <g id="Group-13" transform="translate(-90.000000, 2381.000000)" fill-rule="nonzero">
            <g id="Group-4" transform="translate(406.000000, 259.000000)">
                <g id="approve" transform="translate(915.000000, 8.000000)">
                    <path d="M51.2313801,0 L15.4884729,0 C13.4430204,0 11.7788348,1.66418552 11.7788348,3.70963801 L11.7788348,12.0111538 C4.99840498,13.9515837 0.0211538462,20.2060294 0.0211538462,27.6012896 C0.0211538462,34.9965498 4.99828054,41.2509955 11.7788348,43.1914253 L11.7788348,57.4743778 C11.7788348,59.5198303 13.4430204,61.1840158 15.4884729,61.1840158 L44.6973303,61.1840158 C45.0438801,61.1840158 45.3761199,61.0463914 45.6212557,60.8013801 L54.5582579,51.8642534 C54.8032692,51.6192421 54.9408937,51.2868778 54.9408937,50.9403281 L54.9408937,3.70963801 C54.9408937,1.66418552 53.2768326,0 51.2313801,0 Z M15.4884729,2.61312217 L51.2313801,2.61312217 C51.8358824,2.61312217 52.3277715,3.10501131 52.3277715,3.70963801 L52.3277715,7.65283937 L14.391957,7.65283937 L14.391957,3.70963801 C14.391957,3.10501131 14.8838462,2.61312217 15.4884729,2.61312217 Z M2.63427602,27.6011652 C2.63427602,20.1023756 8.73492081,14.0017308 16.2337104,14.0017308 C23.7325,14.0017308 29.8331448,20.1023756 29.8331448,27.6011652 C29.8331448,35.0999548 23.7325,41.200724 16.2337104,41.200724 C8.73492081,41.200724 2.63427602,35.0999548 2.63427602,27.6011652 Z M14.391957,57.4742534 L14.391957,43.7085747 C14.9967081,43.7772624 15.6110407,43.8138462 16.2338348,43.8138462 C21.1035747,43.8138462 25.4783145,41.6552828 28.4526697,38.2451584 L36.4582805,38.2451584 C37.1798756,38.2451584 37.7648416,37.6601923 37.7648416,36.9385973 C37.7648416,36.2170023 37.1798756,35.6320362 36.4582805,35.6320362 L30.313586,35.6320362 C31.4500452,33.6473077 32.1781109,31.4006448 32.3846719,29.0069005 L36.4581561,29.0069005 C37.1797511,29.0069005 37.7647172,28.4219344 37.7647172,27.7003394 C37.7647172,26.9787443 37.1797511,26.3937783 36.4581561,26.3937783 L32.4012217,26.3937783 C32.2245249,24.0053846 31.5276923,21.7595928 30.424457,19.768767 L36.4580317,19.768767 C37.1796267,19.768767 37.7645928,19.1838009 37.7645928,18.4622059 C37.7645928,17.7406109 37.1796267,17.1556448 36.4580317,17.1556448 L28.6219005,17.1556448 C25.6456787,13.6312896 21.1969005,11.3884842 16.2334615,11.3884842 C15.6106674,11.3884842 14.9963348,11.4250679 14.3915837,11.4937557 L14.3915837,10.2659615 L52.3273982,10.2659615 L52.3273982,49.6335181 L47.1000339,49.6335181 C45.054457,49.6335181 43.3905204,51.2977036 43.3905204,53.3430317 L43.3905204,58.5706448 L15.4884729,58.5706448 C14.8838462,58.5706448 14.391957,58.0788801 14.391957,57.4742534 Z M46.0040158,56.7227941 L46.0040158,53.3431561 C46.0040158,52.7385294 46.495905,52.2467647 47.1004072,52.2467647 L50.4800452,52.2467647 L46.0040158,56.7227941 Z" id="Shape" fill="#4D4D4D"></path>
                    <path d="M41.5916968,19.768767 L45.930724,19.768767 C46.652319,19.768767 47.2372851,19.1838009 47.2372851,18.4622059 C47.2372851,17.7406109 46.652319,17.1556448 45.930724,17.1556448 L41.5916968,17.1556448 C40.8701018,17.1556448 40.2851357,17.7406109 40.2851357,18.4622059 C40.2851357,19.1838009 40.8701018,19.768767 41.5916968,19.768767 Z" id="Shape" fill="#00AAE3"></path>
                    <path d="M41.5916968,29.0069005 L45.930724,29.0069005 C46.652319,29.0069005 47.2372851,28.4219344 47.2372851,27.7003394 C47.2372851,26.9787443 46.652319,26.3937783 45.930724,26.3937783 L41.5916968,26.3937783 C40.8701018,26.3937783 40.2851357,26.9787443 40.2851357,27.7003394 C40.2851357,28.4219344 40.8701018,29.0069005 41.5916968,29.0069005 Z" id="Shape" fill="#00AAE3"></path>
                    <path d="M41.5916968,38.2451584 L45.930724,38.2451584 C46.652319,38.2451584 47.2372851,37.6601923 47.2372851,36.9385973 C47.2372851,36.2170023 46.652319,35.6320362 45.930724,35.6320362 L41.5916968,35.6320362 C40.8701018,35.6320362 40.2851357,36.2170023 40.2851357,36.9385973 C40.2851357,37.6601923 40.8701018,38.2451584 41.5916968,38.2451584 Z" id="Shape" fill="#00AAE3"></path>
                    <path d="M45.930724,47.4832919 C46.652319,47.4832919 47.2372851,46.8983258 47.2372851,46.1767308 C47.2372851,45.4551357 46.652319,44.8701697 45.930724,44.8701697 L33.7081561,44.8701697 C32.9865611,44.8701697 32.401595,45.4551357 32.401595,46.1767308 C32.401595,46.8983258 32.9865611,47.4832919 33.7081561,47.4832919 L45.930724,47.4832919 Z" id="Shape" fill="#00AAE3"></path>
                    <path d="M26.3778507,21.0101244 L24.7838462,19.4161199 C24.3545475,18.9869457 23.7838914,18.7505204 23.176776,18.7505204 C22.5696606,18.7505204 21.9990045,18.9869457 21.5697059,19.4161199 L13.2089593,27.7768665 L10.8978394,25.4657466 C10.4686652,25.0366968 9.89788462,24.8002715 9.29089367,24.8002715 C8.68390271,24.8002715 8.11312217,25.0366968 7.68394796,25.465871 L6.08957014,27.0601244 C5.20359729,27.9462217 5.20359729,29.388043 6.08969457,30.2741403 L11.6017647,35.786086 C12.0310633,36.215509 12.6018439,36.4519344 13.2089593,36.4519344 C13.2089593,36.4519344 13.2090837,36.4519344 13.2090837,36.4519344 C13.8160747,36.4519344 14.3868552,36.215509 14.815905,35.7863348 L26.3779751,24.2242647 C27.263948,23.3381674 27.263948,21.8962217 26.3778507,21.0101244 Z M13.2088348,33.6977036 L8.17807692,28.6670701 L9.29076923,27.5543778 L12.2849095,30.5485181 C12.7952149,31.0588235 13.6224548,31.0588235 14.1327602,30.5485181 L23.176776,21.5045023 L24.2894683,22.6171946 L13.2088348,33.6977036 Z" id="Shape" fill="#FFAF1D"></path>
                </g>
            </g>
        </g>
    </g>
</svg>

<svg width="55" height="62" viewBox="0 0 55 62" xmlns="http://www.w3.org/2000/svg"><title>approve</title><g fill-rule="nonzero" fill="none"><path d="M51.231 0H15.488a3.714 3.714 0 0 0-3.71 3.71v8.301C4.999 13.951.022 20.206.022 27.601c0 7.396 4.977 13.65 11.758 15.59v14.283a3.714 3.714 0 0 0 3.71 3.71h29.208c.347 0 .68-.138.924-.383l8.937-8.937c.245-.245.383-.577.383-.924V3.71A3.714 3.714 0 0 0 51.23 0zM15.488 2.613h35.743c.605 0 1.097.492 1.097 1.097v3.943H14.392V3.71c0-.605.492-1.097 1.096-1.097zM2.634 27.601c0-7.499 6.1-13.6 13.6-13.6 7.498 0 13.6 6.101 13.6 13.6s-6.101 13.6-13.6 13.6c-7.5 0-13.6-6.101-13.6-13.6zm11.758 29.873V43.71c.605.068 1.219.105 1.842.105 4.87 0 9.244-2.159 12.219-5.569h8.005a1.307 1.307 0 1 0 0-2.613h-6.144a16.095 16.095 0 0 0 2.07-6.625h4.074a1.307 1.307 0 1 0 0-2.613h-4.057a16.094 16.094 0 0 0-1.977-6.625h6.034a1.307 1.307 0 1 0 0-2.613h-7.836c-2.976-3.525-7.425-5.768-12.389-5.768-.622 0-1.237.037-1.841.106v-1.228h37.935v39.368H47.1a3.714 3.714 0 0 0-3.71 3.709v5.228H15.489a1.098 1.098 0 0 1-1.096-1.097zm31.612-.751v-3.38c0-.604.492-1.096 1.096-1.096h3.38l-4.476 4.476z" fill="#4D4D4D"/><path d="M41.592 19.769h4.339a1.307 1.307 0 1 0 0-2.613h-4.34a1.307 1.307 0 1 0 0 2.613zM41.592 29.007h4.339a1.307 1.307 0 1 0 0-2.613h-4.34a1.307 1.307 0 1 0 0 2.613zM41.592 38.245h4.339a1.307 1.307 0 1 0 0-2.613h-4.34a1.307 1.307 0 1 0 0 2.613zM45.93 47.483a1.307 1.307 0 1 0 0-2.613H33.709a1.307 1.307 0 1 0 0 2.613h12.223z" fill="#00AAE3"/><path d="M26.378 21.01l-1.594-1.594c-.43-.43-1-.665-1.607-.665s-1.178.236-1.607.665l-8.361 8.36-2.311-2.31c-.43-.43-1-.666-1.607-.666s-1.178.237-1.607.666L6.09 27.06a2.275 2.275 0 0 0 0 3.214l5.512 5.512c.43.43 1 .666 1.607.666s1.178-.236 1.607-.666l11.562-11.562a2.276 2.276 0 0 0 0-3.214zm-13.17 12.688l-5.03-5.03 1.113-1.114 2.994 2.995c.51.51 1.337.51 1.848 0l9.044-9.044 1.112 1.112-11.08 11.08z" fill="#FFAF1D"/></g></svg>
